assets/img/icons/footer/mir.svg

<svg width="72" height="56" viewBox="0 0 72 56" fill="none" xmlns="http://www.w3.org/2000/svg">
<path fill-rule="evenodd" clip-rule="evenodd" d="M72 6V50C72 53.3137 69.3137 56 66 56H6C2.68629 56 0 53.3137 0 50V6C0 2.68629 2.68629 0 6 0H66C69.3137 0 72 2.68629 72 6ZM20.663 26.428L17.438 36.909H13.468L10.24 26.422C10.2037 26.2393 10.0353 26.1134 9.84979 26.1304C9.66426 26.1474 9.5215 26.3017 9.519 26.488V36.909H4V19H10.148C11.2224 19.0432 12.163 19.7345 12.525 20.747L15.211 29.474C15.345 29.908 15.562 29.908 15.695 29.474L18.381 20.747C18.7427 19.7347 19.6829 19.0434 20.757 19H26.9V36.909H21.385V26.488C21.3817 26.301 21.2371 26.1469 21.0507 26.1317C20.8643 26.1165 20.6967 26.245 20.663 26.429V26.428ZM41.276 26.113V26.122L41.265 26.146L36.757 35.746C36.4045 36.4045 35.7439 36.841 35 36.907H29.48V19H35V29.416C35.0017 29.5762 35.1067 29.717 35.2597 29.7645C35.4128 29.8119 35.5789 29.7551 35.671 29.624C35.6933 29.5916 35.7102 29.5558 35.721 29.518L40.113 20.162C40.4706 19.4944 41.1447 19.056 41.9 19H47.419V36.909H41.9V26.264C41.8946 26.1154 41.7911 25.9886 41.6466 25.9534C41.5022 25.9183 41.352 25.9835 41.279 26.113H41.276ZM58.295 26.218C53.603 26.218 49.762 23.033 49.44 19H61.929C63.7394 19.0021 65.4546 19.8112 66.6077 21.2069C67.7607 22.6026 68.2316 24.4397 67.892 26.218H58.295ZM50.176 27.1311V37.0001H55.7V31.1521H61.955C64.5121 31.1377 66.7904 29.5343 67.667 27.1321L50.176 27.1311Z" fill="white"/>
</svg>

<svg width="72" height="56" fill="none" xmlns="http://www.w3.org/2000/svg"><path fill-rule="evenodd" clip-rule="evenodd" d="M72 6v44a6 6 0 01-6 6H6a6 6 0 01-6-6V6a6 6 0 016-6h60a6 6 0 016 6zM20.663 26.428l-3.225 10.481h-3.97L10.24 26.422a.364.364 0 00-.721.066v10.421H4V19h6.148a2.637 2.637 0 012.377 1.747l2.686 8.727c.134.434.351.434.484 0l2.686-8.727A2.636 2.636 0 0120.757 19H26.9v17.909h-5.515V26.488a.364.364 0 00-.722-.059v-.001zm20.613-.315v.009l-.011.024-4.508 9.6A2.215 2.215 0 0135 36.907h-5.52V19H35v10.416a.37.37 0 00.721.102l4.392-9.356A2.213 2.213 0 0141.9 19h5.519v17.909H41.9V26.264a.332.332 0 00-.621-.151h-.003zm17.019.105c-4.692 0-8.533-3.185-8.855-7.218h12.489a6.078 6.078 0 015.963 7.218h-9.597zm-8.119.913v9.87H55.7v-5.849h6.255a6.117 6.117 0 005.712-4.02H50.176z" fill="#fff"/></svg>
